static/img/kroki/c81d203196b0e4e6e6d9ebf0ae69491c.svg

<?xml version="1.0" encoding="us-ascii" standalone="no"?><svg xmlns="http://www.w3.org/2000/svg" xmlns:xlink="http://www.w3.org/1999/xlink" contentStyleType="text/css" height="213px" preserveAspectRatio="none" style="width:349px;height:213px;" version="1.1" viewBox="0 0 349 213" width="349px" zoomAndPan="magnify"><defs/><g><!--class resource--><g id="elem_resource"><rect codeLine="23" fill="#3D176E" height="39.7891" id="resource" rx="2.5" ry="2.5" style="stroke:#000D19;stroke-width:0.5;" width="113" x="7" y="7"/><ellipse cx="22" cy="26.8945" fill="#ADD1B2" rx="11" ry="11" style="stroke:#181818;stroke-width:1.0;"/><path d="M24.9688,32.5352 Q24.3906,32.832 23.75,32.9727 Q23.1094,33.1289 22.4063,33.1289 Q19.9063,33.1289 18.5781,31.4883 Q17.2656,29.832 17.2656,26.707 Q17.2656,23.582 18.5781,21.9258 Q19.9063,20.2695 22.4063,20.2695 Q23.1094,20.2695 23.75,20.4258 Q24.4063,20.582 24.9688,20.8789 L24.9688,23.5977 Q24.3438,23.0195 23.75,22.7539 Q23.1563,22.4727 22.5313,22.4727 Q21.1875,22.4727 20.5,23.5508 Q19.8125,24.6133 19.8125,26.707 Q19.8125,28.8008 20.5,29.8789 Q21.1875,30.9414 22.5313,30.9414 Q23.1563,30.9414 23.75,30.6758 Q24.3438,30.3945 24.9688,29.8164 L24.9688,32.5352 Z " fill="#000000"/><text fill="#D9B8FF" font-family="Helvetica" font-size="17" lengthAdjust="spacing" textLength="71" x="41" y="32.7798">resource</text></g><!--class vsphere_resource--><g id="elem_vsphere_resource"><rect codeLine="26" fill="#3D176E" height="39.7891" id="vsphere_resource" rx="2.5" ry="2.5" style="stroke:#000D19;stroke-width:0.5;" width="188" x="154.5" y="7"/><ellipse cx="169.5" cy="26.8945" fill="#ADD1B2" rx="11" ry="11" style="stroke:#181818;stroke-width:1.0;"/><path d="M172.4688,32.5352 Q171.8906,32.832 171.25,32.9727 Q170.6094,33.1289 169.9063,33.1289 Q167.4063,33.1289 166.0781,31.4883 Q164.7656,29.832 164.7656,26.707 Q164.7656,23.582 166.0781,21.9258 Q167.4063,20.2695 169.9063,20.2695 Q170.6094,20.2695 171.25,20.4258 Q171.9063,20.582 172.4688,20.8789 L172.4688,23.5977 Q171.8438,23.0195 171.25,22.7539 Q170.6563,22.4727 170.0313,22.4727 Q168.6875,22.4727 168,23.5508 Q167.3125,24.6133 167.3125,26.707 Q167.3125,28.8008 168,29.8789 Q168.6875,30.9414 170.0313,30.9414 Q170.6563,30.9414 171.25,30.6758 Q171.8438,30.3945 172.4688,29.8164 L172.4688,32.5352 Z " fill="#000000"/><text fill="#D9B8FF" font-family="Helvetica" font-size="17" lengthAdjust="spacing" textLength="146" x="188.5" y="32.7798">vsphere_resource</text></g><!--class vsphere_template--><g id="elem_vsphere_template"><rect codeLine="29" fill="#3D176E" height="39.7891" id="vsphere_template" rx="2.5" ry="2.5" style="stroke:#000D19;stroke-width:0.5;" width="193" x="59" y="167.79"/><ellipse cx="74" cy="187.6845" fill="#ADD1B2" rx="11" ry="11" style="stroke:#181818;stroke-width:1.0;"/><path d="M76.9688,193.3252 Q76.3906,193.622 75.75,193.7627 Q75.1094,193.9189 74.4063,193.9189 Q71.9063,193.9189 70.5781,192.2783 Q69.2656,190.622 69.2656,187.497 Q69.2656,184.372 70.5781,182.7158 Q71.9063,181.0595 74.4063,181.0595 Q75.1094,181.0595 75.75,181.2158 Q76.4063,181.372 76.9688,181.6689 L76.9688,184.3877 Q76.3438,183.8095 75.75,183.5439 Q75.1563,183.2627 74.5313,183.2627 Q73.1875,183.2627 72.5,184.3408 Q71.8125,185.4033 71.8125,187.497 Q71.8125,189.5908 72.5,190.6689 Q73.1875,191.7314 74.5313,191.7314 Q75.1563,191.7314 75.75,191.4658 Q76.3438,191.1845 76.9688,190.6064 L76.9688,193.3252 Z " fill="#000000"/><text fill="#D9B8FF" font-family="Helvetica" font-size="17" lengthAdjust="spacing" textLength="151" x="93" y="193.5698">vsphere_template</text></g><!--reverse link resource to vsphere_template--><g id="link_resource_vsphere_template"><path codeLine="32" d="M83.6227,62.6253 C101.3027,93.1453 126.66,136.9 144.36,167.46 " fill="none" id="resource-backto-vsphere_template" style="stroke:#FFAF37;stroke-width:2.0;"/><polygon fill="none" points="74.6,47.05,78.4309,65.6329,88.8145,59.6178,74.6,47.05" style="stroke:#FFAF37;stroke-width:2.0;"/></g><!--reverse link vsphere_resource to vsphere_template--><g id="link_vsphere_resource_vsphere_template"><path codeLine="33" d="M228.185,62.5832 C210.315,93.1032 184.66,136.9 166.76,167.46 " fill="none" id="vsphere_resource-backto-vsphere_template" style="stroke:#FFAF37;stroke-width:2.0;"/><polygon fill="none" points="237.28,47.05,223.0073,59.5516,233.3628,65.6149,237.28,47.05" style="stroke:#FFAF37;stroke-width:2.0;"/></g><!--SRC=[XPBDReCm48JlF8Mbd96WKKiYzP96gjfBL3MzLmQlWmNOQBqaId_UlT3GoCM1N7S-xyoid2i13AgQZgo2AWMqWIsKhZdoYgqGpM5jIeDi9YMNysGeFXfDLu4Dhu0zGRa7KXaV4c-voWeDrh8RHthWMR53qsXnMa_8jMqbqEHGwv9Rko92bJO4JXYnJ1TI3idXqjbSnCaTU9X10TWZKHI9U3b4hbfDzZuJM_K1B7QFjZ44NapFufUQJDaHJaYlw9y-cl652w7qZjqwizTJ9jI0_-RRd0jpw6Z9I-lQM084GySQrbuhM2w4J2x2psDma7MdOmZMD9W1-mo2xtwsjtNUld-VqgZzwIMdNZkJzrzX67fGu6qSuNu0]--></g></svg>

<svg xmlns="http://www.w3.org/2000/svg" width="349" height="213" viewBox="0 0 349 213"><rect width="113" height="39.789" x="7" y="7" fill="#3D176E" rx="2.5" ry="2.5" style="stroke:#000d19;stroke-width:.5"/><circle cx="22" cy="26.895" r="11" fill="#ADD1B2" style="stroke:#181818;stroke-width:1"/><path d="M24.969 32.535q-.578.297-1.219.438-.64.156-1.344.156-2.5 0-3.828-1.64-1.312-1.657-1.312-4.782t1.312-4.781q1.328-1.656 3.828-1.656.703 0 1.344.156.656.156 1.219.453v2.719q-.625-.578-1.219-.844-.594-.281-1.219-.281-1.343 0-2.031 1.078-.687 1.062-.687 3.156t.687 3.172q.688 1.062 2.031 1.062.625 0 1.219-.265.594-.281 1.219-.86z"/><text x="41" y="32.78" fill="#D9B8FF" font-family="Helvetica" font-size="17" textLength="71">resource</text><rect width="188" height="39.789" x="154.5" y="7" fill="#3D176E" rx="2.5" ry="2.5" style="stroke:#000d19;stroke-width:.5"/><circle cx="169.5" cy="26.895" r="11" fill="#ADD1B2" style="stroke:#181818;stroke-width:1"/><path d="M172.469 32.535q-.578.297-1.219.438-.64.156-1.344.156-2.5 0-3.828-1.64-1.312-1.657-1.312-4.782t1.312-4.781q1.328-1.656 3.828-1.656.703 0 1.344.156.656.156 1.219.453v2.719q-.625-.578-1.219-.844-.594-.281-1.219-.281-1.344 0-2.031 1.078-.687 1.062-.687 3.156t.687 3.172q.688 1.062 2.031 1.062.625 0 1.219-.265.594-.281 1.219-.86z"/><text x="188.5" y="32.78" fill="#D9B8FF" font-family="Helvetica" font-size="17" textLength="146">vsphere_resource</text><rect width="193" height="39.789" x="59" y="167.79" fill="#3D176E" rx="2.5" ry="2.5" style="stroke:#000d19;stroke-width:.5"/><circle cx="74" cy="187.685" r="11" fill="#ADD1B2" style="stroke:#181818;stroke-width:1"/><path d="M76.969 193.325q-.578.297-1.219.438-.64.156-1.344.156-2.5 0-3.828-1.64-1.312-1.657-1.312-4.782t1.312-4.781q1.328-1.656 3.828-1.656.703 0 1.344.156.656.156 1.219.453v2.719q-.625-.578-1.219-.844-.594-.281-1.219-.281-1.344 0-2.031 1.078-.687 1.062-.687 3.156t.687 3.172q.688 1.062 2.031 1.062.625 0 1.219-.265.594-.281 1.219-.86z"/><text x="93" y="193.57" fill="#D9B8FF" font-family="Helvetica" font-size="17" textLength="151">vsphere_template</text><path fill="none" d="M83.623 62.625c17.68 30.52 43.037 74.275 60.737 104.835M74.6 47.05l3.83 18.583 10.384-6.015z" style="stroke:#ffaf37;stroke-width:2"/><g fill="none"><path d="M228.185 62.583c-17.87 30.52-43.525 74.317-61.425 104.877" style="stroke:#ffaf37;stroke-width:2"/><path d="m237.28 47.05-14.273 12.502 10.356 6.063z" style="stroke:#ffaf37;stroke-width:2"/></g></svg>
